X:1
T:The Miller of Dee
M:6/8
L:1/4
K:Bb
 D/2| G G/2 ^F D/2| B B/2 A c/2| B G/2 A ^F/2| G3/2- G D/2| G G/2 ^F D/2|\
 B B/2 A c/2| B G/2 A ^F/2| G3/2- GB/4-c/4| d d/2 d B/2| c c/2 c A/2|\
 B G/2 c B/2| B3/2- A D/2| G G/2 ^F3/4 E/4 D/2| B B/2 A c/2| B3/4 A/4 G/2 A ^F/2|\
 G3/2- G||
